src/containers/site/SiteRobotsScreen/asset/okex.svg

<svg width="120" height="43" viewBox="0 0 120 43" fill="none" xmlns="http://www.w3.org/2000/svg">
<g clip-path="url(#clip0)">
<path d="M67.4296 21.1883C67.4296 22.6102 67.2093 23.952 66.7487 25.1936C66.2881 26.4553 65.6472 27.5368 64.7861 28.478C63.9249 29.4193 62.8835 30.1602 61.6218 30.721C60.3602 31.2817 58.9383 31.5421 57.3361 31.5421C55.734 31.5421 54.3121 31.2617 53.0504 30.721C51.7887 30.1602 50.7473 29.4193 49.8862 28.478C49.025 27.5368 48.3642 26.4353 47.9236 25.1936C47.483 23.9319 47.2627 22.6102 47.2627 21.1883C47.2627 19.7864 47.483 18.4446 47.9236 17.1829C48.3642 15.9213 49.025 14.8198 49.8862 13.8785C50.7473 12.9373 51.8088 12.1963 53.0504 11.6355C54.3121 11.0748 55.734 10.8145 57.3361 10.8145C58.9383 10.8145 60.3602 11.0948 61.6218 11.6355C62.8835 12.1963 63.9249 12.9373 64.7861 13.8785C65.6472 14.8198 66.2881 15.9213 66.7487 17.1829C67.2093 18.4446 67.4296 19.7864 67.4296 21.1883ZM57.3561 28.2577C58.3375 28.2577 59.1986 28.0775 59.9196 27.717C60.6606 27.3565 61.2614 26.8558 61.762 26.235C62.2627 25.5942 62.6232 24.8532 62.8635 23.992C63.1038 23.1309 63.224 22.1896 63.224 21.1883C63.224 20.187 63.1038 19.2457 62.8635 18.3845C62.6232 17.5234 62.2627 16.7824 61.762 16.1416C61.2614 15.5007 60.6606 15.0201 59.9196 14.6596C59.1786 14.2991 58.3375 14.1189 57.3561 14.1189C56.3748 14.1189 55.5137 14.2991 54.7927 14.6596C54.0517 15.0201 53.4509 15.5207 52.9503 16.1416C52.4496 16.7824 52.0891 17.5234 51.8488 18.3845C51.6085 19.2457 51.4883 20.187 51.4883 21.1883C51.4883 22.1896 51.6085 23.1309 51.8488 23.992C52.0891 24.8532 52.4496 25.5942 52.9503 26.235C53.4509 26.8759 54.0517 27.3565 54.7927 27.717C55.5137 28.0775 56.3748 28.2577 57.3561 28.2577ZM70.0731 31.2016V11.1749H74.2787V20.7878L81.228 11.1749H86.0945L78.7246 21.0681L86.5951 31.2016H81.3882L74.2587 21.3685V31.2016H70.0731ZM88.2774 11.1749H100.313V14.5194H92.503V19.3659H99.9529V22.6903H92.503V27.8572H100.414V31.2016H88.2974V11.1749H88.2774ZM115.313 11.1749H119.879L113.291 21.1282L120 31.2016H115.394L111.068 24.3725L106.742 31.2016H102.136L108.845 21.1282L102.256 11.1749H106.822L111.068 17.944L115.313 11.1749Z" fill="#B5B5B5"/>
<path d="M21.2281 19.2256C26.5371 19.2256 30.8409 14.9218 30.8409 9.61282C30.8409 4.3038 26.5371 0 21.2281 0C15.919 0 11.6152 4.3038 11.6152 9.61282C11.6152 14.9218 15.919 19.2256 21.2281 19.2256Z" fill="#B5B5B5"/>
<path d="M21.2281 42.4566C26.5371 42.4566 30.8409 38.1528 30.8409 32.8438C30.8409 27.5348 26.5371 23.231 21.2281 23.231C15.919 23.231 11.6152 27.5348 11.6152 32.8438C11.6152 38.1528 15.919 42.4566 21.2281 42.4566Z" fill="#B5B5B5"/>
<path d="M32.8443 30.8411C38.1533 30.8411 42.4571 26.5373 42.4571 21.2283C42.4571 15.9193 38.1533 11.6155 32.8443 11.6155C27.5353 11.6155 23.2314 15.9193 23.2314 21.2283C23.2314 26.5373 27.5353 30.8411 32.8443 30.8411Z" fill="#B5B5B5"/>
<path d="M9.61282 30.8411C14.9218 30.8411 19.2256 26.5373 19.2256 21.2283C19.2256 15.9193 14.9218 11.6155 9.61282 11.6155C4.3038 11.6155 0 15.9193 0 21.2283C0 26.5373 4.3038 30.8411 9.61282 30.8411Z" fill="#B5B5B5"/>
<path d="M18.9552 18.9553C15.4719 18.111 12.7301 15.3691 11.8857 11.8859C15.369 12.7302 18.1108 15.472 18.9552 18.9553Z" fill="#B5B5B5"/>
<path d="M11.8857 30.5707C12.7303 27.0875 15.4721 24.3456 18.9554 23.5011C18.1108 26.9845 15.369 29.7264 11.8857 30.5707Z" fill="#B5B5B5"/>
<path d="M23.502 23.5013C26.9852 24.3459 29.7271 27.0877 30.5716 30.571C27.0881 29.7264 24.3463 26.9846 23.502 23.5013Z" fill="#B5B5B5"/>
<path d="M30.5706 11.8859C29.7261 15.3691 26.9842 18.111 23.501 18.9555C24.3455 15.472 27.0874 12.7302 30.5706 11.8859Z" fill="#B5B5B5"/>
</g>
<defs>
<clipPath id="clip0">
<rect width="120" height="42.4566" fill="white"/>
</clipPath>
</defs>
</svg>

<svg width="120" height="43" fill="none" xmlns="http://www.w3.org/2000/svg"><g clip-path="url(#clip0)" fill="#B5B5B5"><path d="M67.43 21.188c0 1.422-.22 2.764-.681 4.006-.46 1.261-1.102 2.343-1.963 3.284-.861.941-1.903 1.682-3.164 2.243-1.262.56-2.684.821-4.286.821-1.602 0-3.024-.28-4.286-.821-1.261-.56-2.303-1.302-3.164-2.243a9.568 9.568 0 01-1.962-3.284 12.004 12.004 0 01-.661-4.006c0-1.402.22-2.743.66-4.005a9.472 9.472 0 011.963-3.304c.861-.942 1.923-1.683 3.164-2.243 1.262-.561 2.684-.821 4.286-.821 1.602 0 3.024.28 4.286.82 1.261.561 2.303 1.302 3.164 2.244.861.94 1.502 2.042 1.963 3.304.46 1.262.68 2.603.68 4.005zm-10.074 7.07c.981 0 1.843-.18 2.564-.541a5.338 5.338 0 001.842-1.482c.5-.64.861-1.382 1.102-2.243.24-.861.36-1.802.36-2.804 0-1.001-.12-1.942-.36-2.803-.24-.862-.601-1.603-1.102-2.243a5.117 5.117 0 00-1.842-1.482c-.741-.36-1.583-.541-2.564-.541-.981 0-1.842.18-2.563.54a5.337 5.337 0 00-1.843 1.483c-.5.64-.86 1.381-1.101 2.242-.24.862-.36 1.803-.36 2.804 0 1.002.12 1.943.36 2.804.24.861.6 1.602 1.101 2.243.5.64 1.102 1.122 1.843 1.482.72.36 1.582.54 2.563.54zm12.717 2.944V11.175h4.206v9.613l6.949-9.613h4.867l-7.37 9.893 7.87 10.134h-5.207l-7.13-9.834v9.834h-4.185zm18.204-20.027h12.036v3.344h-7.81v4.847h7.45v3.324h-7.45v5.167h7.911v3.345H88.297V11.175h-.02zm27.036 0h4.566l-6.588 9.953L120 31.202h-4.606l-4.326-6.83-4.326 6.83h-4.606l6.709-10.074-6.589-9.953h4.566l4.246 6.769 4.245-6.77zM21.228 19.226a9.613 9.613 0 100-19.226 9.613 9.613 0 100 19.226zM21.228 42.457a9.613 9.613 0 000-19.226 9.613 9.613 0 100 19.226z"/><path d="M32.844 30.841a9.613 9.613 0 000-19.226 9.613 9.613 0 100 19.226zM9.613 30.841a9.613 9.613 0 100-19.225 9.613 9.613 0 000 19.225z"/><path d="M18.955 18.955a9.627 9.627 0 01-7.07-7.07 9.627 9.627 0 017.07 7.07zM11.886 30.57a9.629 9.629 0 017.07-7.069 9.628 9.628 0 01-7.07 7.07zM23.502 23.501a9.629 9.629 0 017.07 7.07 9.628 9.628 0 01-7.07-7.07zM30.57 11.886a9.628 9.628 0 01-7.069 7.07 9.628 9.628 0 017.07-7.07z"/></g><defs><clipPath id="clip0"><path fill="#fff" d="M0 0h120v42.457H0z"/></clipPath></defs></svg>
